assets/duotone/image-square-duotone.svg

<svg id="Flat" xmlns="http://www.w3.org/2000/svg" viewBox="0 0 256 256">
  <g opacity="0.2">
    <path d="M40,176V48a8,8,0,0,1,8-8H208a8,8,0,0,1,8,8V160l-.00018-.00018-42.343-42.343a8,8,0,0,0-11.3137,0l-44.6863,44.6863a8,8,0,0,1-11.3137,0l-20.6863-20.6863a8,8,0,0,0-11.3137,0Z"/>
  </g>
  <path d="M87.99951,92a12,12,0,1,1,12,12A12,12,0,0,1,87.99951,92Zm136.001-44.00037v160a16.01833,16.01833,0,0,1-16,16h-160a16.01833,16.01833,0,0,1-16-16v-160a16.01833,16.01833,0,0,1,16-16h160A16.01834,16.01834,0,0,1,224.00049,47.99963Zm-176,108.68494L68.686,135.99963a16.02161,16.02161,0,0,1,22.62792,0l20.68653,20.68653L156.686,111.99963a16.019,16.019,0,0,1,22.62792,0l28.69239,28.6922-.00586-92.6922h-160Zm160.00976,51.31506-.00293-44.67755-40.00781-40.008L123.314,168.00061a16.019,16.019,0,0,1-22.62792,0L79.99951,147.31409l-31.999,31.999v28.68652H208.01025Z"/>
</svg>

<svg xmlns="http://www.w3.org/2000/svg" viewBox="0 0 256 256"><g opacity="0.2"><path d="M40,176V48a8,8,0,0,1,8-8H208a8,8,0,0,1,8,8V160h0l-42.3-42.3a8,8,0,0,0-11.4,0l-44.6,44.6a8,8,0,0,1-11.4,0L85.7,141.7a8,8,0,0,0-11.4,0Z"/></g><path d="M88,92a12,12,0,1,1,12,12A12,12,0,0,1,88,92ZM224,48V208a16,16,0,0,1-16,16H48a16,16,0,0,1-16-16V176h0V48A16,16,0,0,1,48,32H208A16,16,0,0,1,224,48ZM48,156.7,68.7,136a16.1,16.1,0,0,1,22.6,0L112,156.7,156.7,112a16.1,16.1,0,0,1,22.6,0L208,140.7V48H48ZM208,208V163.3l-40-40L123.3,168a16.1,16.1,0,0,1-22.6,0L80,147.3l-32,32V208Z"/></svg>
